ce/sales/media/conversation-intelligence-data-structure-in-dataverse.svg

<svg width="804.14" height="615.67" overflow="hidden" version="1.1" xmlns="http://www.w3.org/2000/svg">
 <g transform="translate(-263.8 -53.439)">
  <rect x="263.8" y="53.439" width="804.14" height="615.67" fill="#fff"/>
  <path d="m476.5 79c0-5.7991 4.701-10.5 10.5-10.5h95c5.799 0 10.5 4.701 10.5 10.5v42c0 5.799-4.701 10.5-10.5 10.5h-95c-5.799 0-10.5-4.701-10.5-10.5z" fill="#4472c4" fill-rule="evenodd" stroke="#2f528f" stroke-miterlimit="8" stroke-width="1.3333"/>
  <text transform="translate(493.58 95)" fill="#ffffff" font-family="Calibri, Calibri_MSFontService, sans-serif" font-size="15px" font-weight="400">Conversation</text>
  <text transform="translate(492.91,115)" fill="#ffffff" font-family="Calibri, Calibri_MSFontService, sans-serif" font-size="8px" font-weight="400">msdyn_SCIConversation</text>
  <path d="m289.5 79c0-5.7991 4.701-10.5 10.5-10.5h83c5.799 0 10.5 4.7011 10.5 10.5v42c0 5.799-4.701 10.5-10.5 10.5h-83c-5.799 0-10.5-4.701-10.5-10.5z" fill="#4472c4" fill-rule="evenodd" stroke="#2f528f" stroke-miterlimit="8" stroke-width="1.3333"/>
  <g fill="#ffffff" font-family="Calibri, Calibri_MSFontService, sans-serif" font-weight="400">
   <text transform="translate(318.03 86)" font-size="15px">Activity</text>
   <g font-size="8px">
    <text transform="translate(315.79 106)">Appointment /</text>
    <text transform="translate(323.03 124)">phone</text>
    <text transform="translate(344.7,124)">-</text>
    <text transform="translate(347.2,124)">call</text>
   </g>
  </g>
  <path d="m393.5 99.5 83.756 1e-4" fill="none" fill-rule="evenodd" stroke="#4472c4" stroke-dasharray="5.33333, 4" stroke-miterlimit="8" stroke-width="1.3333"/>
  <path d="m345.5 217c0-5.799 4.701-10.5 10.5-10.5h83c5.799 0 10.5 4.701 10.5 10.5v42c0 5.799-4.701 10.5-10.5 10.5h-83c-5.799 0-10.5-4.701-10.5-10.5z" fill="#4472c4" fill-rule="evenodd" stroke="#2f528f" stroke-miterlimit="8" stroke-width="1.3333"/>
  <text transform="translate(365.91 233)" fill="#ffffff" font-family="Calibri, Calibri_MSFontService, sans-serif" font-size="15px" font-weight="400">Recording</text>
  <text transform="translate(363.08 253)" fill="#ffffff" font-family="Calibri, Calibri_MSFontService, sans-serif" font-size="8px" font-weight="400">Link to file in Teams</text>
  <path d="m482.5 217c0-5.799 4.701-10.5 10.5-10.5h83c5.799 0 10.5 4.701 10.5 10.5v42c0 5.799-4.701 10.5-10.5 10.5h-83c-5.799 0-10.5-4.701-10.5-10.5z" fill="#4472c4" fill-rule="evenodd" stroke="#2f528f" stroke-miterlimit="8" stroke-width="1.3333"/>
  <text transform="translate(503.25 233)" fill="#ffffff" font-family="Calibri, Calibri_MSFontService, sans-serif" font-size="15px" font-weight="400">Transcript</text>
  <text transform="translate(500.33 253)" fill="#ffffff" font-family="Calibri, Calibri_MSFontService, sans-serif" font-size="8px" font-weight="400">Link to file in Teams</text>
  <path d="m620.5 217c0-5.799 4.701-10.5 10.5-10.5h82c5.799 0 10.5 4.701 10.5 10.5v42c0 5.799-4.701 10.5-10.5 10.5h-82c-5.799 0-10.5-4.701-10.5-10.5z" fill="#4472c4" fill-rule="evenodd" stroke="#2f528f" stroke-miterlimit="8" stroke-width="1.3333"/>
  <g fill="#ffffff" font-family="Calibri, Calibri_MSFontService, sans-serif" font-weight="400">
   <text transform="translate(636.07 219)" font-size="15px">Aggregated</text>
   <text transform="translate(647.99 237)" font-size="15px">insights</text>
   <text transform="translate(633.49 257)" font-size="8px">msdyn_conversationA</text>
   <text transform="translate(642.99 267)" font-size="8px">gregatedInsights</text>
  </g>
  <path d="m471.5 357.83c0-5.707 4.627-10.334 10.334-10.334h94.333c5.707 0 10.333 4.627 10.333 10.334v41.333c0 5.707-4.626 10.333-10.333 10.333h-94.333c-5.707 0-10.334-4.626-10.334-10.333z" fill="#4472c4" fill-rule="evenodd" stroke="#2f528f" stroke-miterlimit="8" stroke-width="1.3333"/>
  <g fill="#ffffff" font-family="Calibri, Calibri_MSFontService, sans-serif" font-weight="400">
   <text transform="translate(496.56 365)" font-size="15px">Sentiment</text>
   <g font-size="8px">
    <text transform="translate(514.98 385)">msdyn</text>
    <text transform="translate(537.48 385)">_</text>
    <text transform="translate(488.56 403)">conversationSentiment</text>
   </g>
  </g>
  <path d="m619.5 357c0-5.799 4.701-10.5 10.5-10.5h82c5.799 0 10.5 4.701 10.5 10.5v42c0 5.799-4.701 10.5-10.5 10.5h-82c-5.799 0-10.5-4.701-10.5-10.5z" fill="#4472c4" fill-rule="evenodd" stroke="#2f528f" stroke-miterlimit="8" stroke-width="1.3333"/>
  <g fill="#ffffff" font-family="Calibri, Calibri_MSFontService, sans-serif" font-weight="400">
   <text transform="translate(647.56 365)" font-size="15px">Subject</text>
   <g font-size="8px">
    <text transform="translate(656.98 385)">msdyn</text>
    <text transform="translate(679.48 385)">_</text>
    <text transform="translate(635.64 403)">conversationSubject</text>
   </g>
  </g>
  <g fill="none" fill-rule="evenodd" stroke="#4472c4" stroke-miterlimit="8" stroke-width=".66667">
   <path d="m534.74 131.5v37.658h-137.24v37.659"/>
   <path d="m534.5 131.5v75.317"/>
   <path transform="matrix(0,1,1,0,534.5,131.5)" d="m0 0h37.658v137.24h37.658"/>
  </g>
  <path d="m757.5 357c0-5.799 4.701-10.5 10.5-10.5h83c5.799 0 10.5 4.701 10.5 10.5v42c0 5.799-4.701 10.5-10.5 10.5h-83c-5.799 0-10.5-4.701-10.5-10.5z" fill="#4472c4" fill-rule="evenodd" stroke="#2f528f" stroke-miterlimit="8" stroke-width="1.3333"/>
  <g fill="#ffffff" font-family="Calibri, Calibri_MSFontService, sans-serif" font-weight="400">
   <text transform="translate(772.41 360)" font-size="15px">Participants</text>
   <g font-size="8px">
    <text transform="translate(795.41 380)">msdyn</text>
    <text transform="translate(817.91 380)">_</text>
    <text transform="translate(771.58,398)">conversationParticipa</text>
    <text transform="translate(792,408)">ntInsights</text>
   </g>
  </g>
  <g fill="none" fill-rule="evenodd" stroke="#4472c4" stroke-miterlimit="8" stroke-width=".66667">
   <path d="m528.5 347.14v-38.819h143.09v-38.818"/>
   <path d="m670.5 346.86v-38.679h1.095v-38.678"/>
   <path transform="matrix(0 -1 -1 0 808.84 346.86)" d="m0 0h38.678v137.34h38.678"/>
  </g>
  <path d="m582.5 465.71c0-5.088 4.124-9.212 9.212-9.212h435.58c5.09 0 9.21 4.124 9.21 9.212v177.58c0 5.088-4.12 9.212-9.21 9.212h-435.58c-5.088 0-9.212-4.124-9.212-9.212z" fill="#9dc3e6" fill-rule="evenodd" stroke="#2f528f" stroke-miterlimit="8" stroke-width="1.3333"/>
  <text transform="translate(744.91 478)" fill="#ffffff" font-family="Calibri, Calibri_MSFontService, sans-serif" font-size="15px" font-weight="400">Per each participant:</text>
  <path d="m619.5 502c0-5.799 4.701-10.5 10.5-10.5h82c5.799 0 10.5 4.701 10.5 10.5v42c0 5.799-4.701 10.5-10.5 10.5h-82c-5.799 0-10.5-4.701-10.5-10.5z" fill="#4472c4" fill-rule="evenodd" stroke="#2f528f" stroke-miterlimit="8" stroke-width="1.3333"/>
  <g fill="#ffffff" font-family="Calibri, Calibri_MSFontService, sans-serif" font-weight="400">
   <text transform="translate(640.23 510)" font-size="15px">Keywords</text>
   <g font-size="8px">
    <text transform="translate(656.97 530)">msdyn</text>
    <text transform="translate(679.47 530)">_</text>
    <text transform="translate(638.06,548)">conversationSignal</text>
   </g>
  </g>
  <path d="m757.5 502c0-5.799 4.701-10.5 10.5-10.5h88c5.799 0 10.5 4.701 10.5 10.5v42c0 5.799-4.701 10.5-10.5 10.5h-88c-5.799 0-10.5-4.701-10.5-10.5z" fill="#4472c4" fill-rule="evenodd" stroke="#2f528f" stroke-miterlimit="8" stroke-width="1.3333"/>
  <g fill="#ffffff" font-family="Calibri, Calibri_MSFontService, sans-serif" font-weight="400">
   <text transform="translate(779.96 505)" font-size="15px">Sentiment</text>
   <g font-size="8px">
    <text transform="translate(798.38 525)">msdyn</text>
    <text transform="translate(820.88 525)">_</text>
    <text transform="translate(770.96 543)">conversationParticipant</text>
    <text transform="translate(794.13 553)">Sentiment</text>
   </g>
  </g>
  <path d="m905.5 502c0-5.799 4.701-10.5 10.5-10.5h103c5.8 0 10.5 4.701 10.5 10.5v42c0 5.799-4.7 10.5-10.5 10.5h-103c-5.799 0-10.5-4.701-10.5-10.5z" fill="#4472c4" fill-rule="evenodd" stroke="#2f528f" stroke-miterlimit="8" stroke-width="1.3333"/>
  <g fill="#ffffff" font-family="Calibri, Calibri_MSFontService, sans-serif" font-weight="400">
   <text transform="translate(928.69 509)" font-size="15px">Action items</text>
   <g font-size="8px">
    <text transform="translate(953.77 529)">msdyn</text>
    <text transform="translate(976.27 529)">_</text>
    <text transform="translate(926.03 547)">conversationActionItem</text>
   </g>
  </g>
  <path d="m652.5 590.17c0-5.891 4.776-10.667 10.667-10.667h120.67c5.891 0 10.667 4.776 10.667 10.667v42.666c0 5.891-4.776 10.667-10.667 10.667h-120.67c-5.891 0-10.667-4.776-10.667-10.667z" fill="#4472c4" fill-rule="evenodd" stroke="#2f528f" stroke-miterlimit="8" stroke-width="1.3333"/>
  <g fill="#ffffff" font-family="Calibri, Calibri_MSFontService, sans-serif" font-weight="400">
   <text transform="translate(678.03 598)" font-size="15px">Summary note</text>
   <g font-size="8px">
    <text transform="translate(709.87 618)">msdyn</text>
    <text transform="translate(732.37 618)">_</text>
    <text transform="translate(666.2 636)">conversationSummarySuggestion</text>
   </g>
  </g>
  <path d="m853.5 590.17c0-5.891 4.776-10.667 10.667-10.667h82.666c5.891 0 10.667 4.776 10.667 10.667v42.666c0 5.891-4.776 10.667-10.667 10.667h-82.666c-5.891 0-10.667-4.776-10.667-10.667z" fill="#4472c4" fill-rule="evenodd" stroke="#2f528f" stroke-miterlimit="8" stroke-width="1.3333"/>
  <g fill="#ffffff" font-family="Calibri, Calibri_MSFontService, sans-serif" font-weight="400">
   <text transform="translate(874.22 598)" font-size="15px">Questions</text>
   <g font-size="8px">
    <text transform="translate(891.8 618)">msdyn</text>
    <text transform="translate(914.3 618)">_</text>
    <text transform="translate(867.39 636)">conversationQuestion</text>
   </g>
  </g>
  <path transform="matrix(0 -1 -1 0 809.5 456.11)" d="m0 0h23.306v1.0499e-4h23.306" fill="none" fill-rule="evenodd" stroke="#4472c4" stroke-miterlimit="8" stroke-width=".66667"/>
 </g>
</svg>

<svg width="1280" height="720" xmlns="http://www.w3.org/2000/svg" xmlns:xlink="http://www.w3.org/1999/xlink" overflow="hidden"><g><rect x="0" y="0" width="1280" height="720" fill="#FFFFFF"/><path d="M476.5 79.0002C476.5 73.2011 481.201 68.5001 487 68.5001L582 68.5001C587.799 68.5001 592.5 73.2011 592.5 79.0002L592.5 121C592.5 126.799 587.799 131.5 582 131.5L487 131.5C481.201 131.5 476.5 126.799 476.5 121Z" stroke="#2F528F" stroke-width="1.33333" stroke-miterlimit="8" fill="#4472C4" fill-rule="evenodd"/><text fill="#FFFFFF" font-family="Calibri,Calibri_MSFontService,sans-serif" font-weight="400" font-size="15" transform="translate(493.576 95)">Conversation</text><text fill="#FFFFFF" font-family="Calibri,Calibri_MSFontService,sans-serif" font-weight="400" font-size="8" transform="translate(492.91 115)">msdyn_SCIConversation</text><path d="M289.5 79.0003C289.5 73.2012 294.201 68.5001 300 68.5001L383 68.5001C388.799 68.5001 393.5 73.2012 393.5 79.0003L393.5 121C393.5 126.799 388.799 131.5 383 131.5L300 131.5C294.201 131.5 289.5 126.799 289.5 121Z" stroke="#2F528F" stroke-width="1.33333" stroke-miterlimit="8" fill="#4472C4" fill-rule="evenodd"/><text fill="#FFFFFF" font-family="Calibri,Calibri_MSFontService,sans-serif" font-weight="400" font-size="15" transform="translate(318.033 86)">Activity</text><text fill="#FFFFFF" font-family="Calibri,Calibri_MSFontService,sans-serif" font-weight="400" font-size="8" transform="translate(315.786 106)">Appointment /</text><text fill="#FFFFFF" font-family="Calibri,Calibri_MSFontService,sans-serif" font-weight="400" font-size="8" transform="translate(323.033 124)">phone</text><text fill="#FFFFFF" font-family="Calibri,Calibri_MSFontService,sans-serif" font-weight="400" font-size="8" transform="translate(344.7 124)">-</text><text fill="#FFFFFF" font-family="Calibri,Calibri_MSFontService,sans-serif" font-weight="400" font-size="8" transform="translate(347.2 124)">call</text><path d="M393.5 99.5001 477.256 99.5002" stroke="#4472C4" stroke-width="1.33333" stroke-miterlimit="8" stroke-dasharray="5.33333 4" fill="none" fill-rule="evenodd"/><path d="M345.5 217C345.5 211.201 350.201 206.5 356 206.5L439 206.5C444.799 206.5 449.5 211.201 449.5 217L449.5 259C449.5 264.799 444.799 269.5 439 269.5L356 269.5C350.201 269.5 345.5 264.799 345.5 259Z" stroke="#2F528F" stroke-width="1.33333" stroke-miterlimit="8" fill="#4472C4" fill-rule="evenodd"/><text fill="#FFFFFF" font-family="Calibri,Calibri_MSFontService,sans-serif" font-weight="400" font-size="15" transform="translate(365.914 233)">Recording</text><text fill="#FFFFFF" font-family="Calibri,Calibri_MSFontService,sans-serif" font-weight="400" font-size="8" transform="translate(363.081 253)">Link to file in Teams</text><path d="M482.5 217C482.5 211.201 487.201 206.5 493 206.5L576 206.5C581.799 206.5 586.5 211.201 586.5 217L586.5 259C586.5 264.799 581.799 269.5 576 269.5L493 269.5C487.201 269.5 482.5 264.799 482.5 259Z" stroke="#2F528F" stroke-width="1.33333" stroke-miterlimit="8" fill="#4472C4" fill-rule="evenodd"/><text fill="#FFFFFF" font-family="Calibri,Calibri_MSFontService,sans-serif" font-weight="400" font-size="15" transform="translate(503.246 233)">Transcript</text><text fill="#FFFFFF" font-family="Calibri,Calibri_MSFontService,sans-serif" font-weight="400" font-size="8" transform="translate(500.326 253)">Link to file in Teams</text><path d="M620.5 217C620.5 211.201 625.201 206.5 631 206.5L713 206.5C718.799 206.5 723.5 211.201 723.5 217L723.5 259C723.5 264.799 718.799 269.5 713 269.5L631 269.5C625.201 269.5 620.5 264.799 620.5 259Z" stroke="#2F528F" stroke-width="1.33333" stroke-miterlimit="8" fill="#4472C4" fill-rule="evenodd"/><text fill="#FFFFFF" font-family="Calibri,Calibri_MSFontService,sans-serif" font-weight="400" font-size="15" transform="translate(636.068 219)">Aggregated</text><text fill="#FFFFFF" font-family="Calibri,Calibri_MSFontService,sans-serif" font-weight="400" font-size="15" transform="translate(647.988 237)">insights</text><text fill="#FFFFFF" font-family="Calibri,Calibri_MSFontService,sans-serif" font-weight="400" font-size="8" transform="translate(633.488 257)">msdyn_conversationA</text><text fill="#FFFFFF" font-family="Calibri,Calibri_MSFontService,sans-serif" font-weight="400" font-size="8" transform="translate(642.988 267)">gregatedInsights</text><path d="M471.5 357.834C471.5 352.127 476.127 347.5 481.834 347.5L576.167 347.5C581.874 347.5 586.5 352.127 586.5 357.834L586.5 399.167C586.5 404.874 581.874 409.5 576.167 409.5L481.834 409.5C476.127 409.5 471.5 404.874 471.5 399.167Z" stroke="#2F528F" stroke-width="1.33333" stroke-miterlimit="8" fill="#4472C4" fill-rule="evenodd"/><text fill="#FFFFFF" font-family="Calibri,Calibri_MSFontService,sans-serif" font-weight="400" font-size="15" transform="translate(496.561 365)">Sentiment</text><text fill="#FFFFFF" font-family="Calibri,Calibri_MSFontService,sans-serif" font-weight="400" font-size="8" transform="translate(514.981 385)">msdyn</text><text fill="#FFFFFF" font-family="Calibri,Calibri_MSFontService,sans-serif" font-weight="400" font-size="8" transform="translate(537.481 385)">_</text><text fill="#FFFFFF" font-family="Calibri,Calibri_MSFontService,sans-serif" font-weight="400" font-size="8" transform="translate(488.561 403)">conversationSentiment</text><path d="M619.5 357C619.5 351.201 624.201 346.5 630 346.5L712 346.5C717.799 346.5 722.5 351.201 722.5 357L722.5 399C722.5 404.799 717.799 409.5 712 409.5L630 409.5C624.201 409.5 619.5 404.799 619.5 399Z" stroke="#2F528F" stroke-width="1.33333" stroke-miterlimit="8" fill="#4472C4" fill-rule="evenodd"/><text fill="#FFFFFF" font-family="Calibri,Calibri_MSFontService,sans-serif" font-weight="400" font-size="15" transform="translate(647.563 365)">Subject</text><text fill="#FFFFFF" font-family="Calibri,Calibri_MSFontService,sans-serif" font-weight="400" font-size="8" transform="translate(656.976 385)">msdyn</text><text fill="#FFFFFF" font-family="Calibri,Calibri_MSFontService,sans-serif" font-weight="400" font-size="8" transform="translate(679.476 385)">_</text><text fill="#FFFFFF" font-family="Calibri,Calibri_MSFontService,sans-serif" font-weight="400" font-size="8" transform="translate(635.643 403)">conversationSubject</text><path d="M534.745 131.5 534.745 169.158 397.5 169.158 397.5 206.817" stroke="#4472C4" stroke-width="0.666667" stroke-miterlimit="8" fill="none" fill-rule="evenodd"/><path d="M534.5 131.5 534.5 169.158 534.5 169.158 534.5 206.817" stroke="#4472C4" stroke-width="0.666667" stroke-miterlimit="8" fill="none" fill-rule="evenodd"/><path d="M0 0 37.6584 0 37.6584 137.245 75.3166 137.245" stroke="#4472C4" stroke-width="0.666667" stroke-miterlimit="8" fill="none" fill-rule="evenodd" transform="matrix(1.83697e-16 1 1 -1.83697e-16 534.5 131.5)"/><path d="M757.5 357C757.5 351.201 762.201 346.5 768 346.5L851 346.5C856.799 346.5 861.5 351.201 861.5 357L861.5 399C861.5 404.799 856.799 409.5 851 409.5L768 409.5C762.201 409.5 757.5 404.799 757.5 399Z" stroke="#2F528F" stroke-width="1.33333" stroke-miterlimit="8" fill="#4472C4" fill-rule="evenodd"/><text fill="#FFFFFF" font-family="Calibri,Calibri_MSFontService,sans-serif" font-weight="400" font-size="15" transform="translate(772.414 360)">Participants</text><text fill="#FFFFFF" font-family="Calibri,Calibri_MSFontService,sans-serif" font-weight="400" font-size="8" transform="translate(795.414 380)">msdyn</text><text fill="#FFFFFF" font-family="Calibri,Calibri_MSFontService,sans-serif" font-weight="400" font-size="8" transform="translate(817.914 380)">_</text><text fill="#FFFFFF" font-family="Calibri,Calibri_MSFontService,sans-serif" font-weight="400" font-size="8" transform="translate(771.58 398)">conversationParticipa</text><text fill="#FFFFFF" font-family="Calibri,Calibri_MSFontService,sans-serif" font-weight="400" font-size="8" transform="translate(792 408)">ntInsights</text><path d="M528.5 347.137 528.5 308.318 671.594 308.318 671.594 269.5" stroke="#4472C4" stroke-width="0.666667" stroke-miterlimit="8" fill="none" fill-rule="evenodd"/><path d="M670.5 346.857 670.5 308.178 671.595 308.178 671.595 269.5" stroke="#4472C4" stroke-width="0.666667" stroke-miterlimit="8" fill="none" fill-rule="evenodd"/><path d="M0 0 38.6785 0 38.6785 137.342 77.357 137.342" stroke="#4472C4" stroke-width="0.666667" stroke-miterlimit="8" fill="none" fill-rule="evenodd" transform="matrix(-1.83697e-16 -1 -1 1.83697e-16 808.842 346.857)"/><path d="M582.5 465.712C582.5 460.624 586.624 456.5 591.712 456.5L1027.29 456.5C1032.38 456.5 1036.5 460.624 1036.5 465.712L1036.5 643.288C1036.5 648.376 1032.38 652.5 1027.29 652.5L591.712 652.5C586.624 652.5 582.5 648.376 582.5 643.288Z" stroke="#2F528F" stroke-width="1.33333" stroke-miterlimit="8" fill="#9DC3E6" fill-rule="evenodd"/><text fill="#FFFFFF" font-family="Calibri,Calibri_MSFontService,sans-serif" font-weight="400" font-size="15" transform="translate(744.914 478)">Per each participant:</text><path d="M619.5 502C619.5 496.201 624.201 491.5 630 491.5L712 491.5C717.799 491.5 722.5 496.201 722.5 502L722.5 544C722.5 549.799 717.799 554.5 712 554.5L630 554.5C624.201 554.5 619.5 549.799 619.5 544Z" stroke="#2F528F" stroke-width="1.33333" stroke-miterlimit="8" fill="#4472C4" fill-rule="evenodd"/><text fill="#FFFFFF" font-family="Calibri,Calibri_MSFontService,sans-serif" font-weight="400" font-size="15" transform="translate(640.226 510)">Keywords</text><text fill="#FFFFFF" font-family="Calibri,Calibri_MSFontService,sans-serif" font-weight="400" font-size="8" transform="translate(656.973 530)">msdyn</text><text fill="#FFFFFF" font-family="Calibri,Calibri_MSFontService,sans-serif" font-weight="400" font-size="8" transform="translate(679.473 530)">_</text><text fill="#FFFFFF" font-family="Calibri,Calibri_MSFontService,sans-serif" font-weight="400" font-size="8" transform="translate(638.06 548)">conversationSignal</text><path d="M757.5 502C757.5 496.201 762.201 491.5 768 491.5L856 491.5C861.799 491.5 866.5 496.201 866.5 502L866.5 544C866.5 549.799 861.799 554.5 856 554.5L768 554.5C762.201 554.5 757.5 549.799 757.5 544Z" stroke="#2F528F" stroke-width="1.33333" stroke-miterlimit="8" fill="#4472C4" fill-rule="evenodd"/><text fill="#FFFFFF" font-family="Calibri,Calibri_MSFontService,sans-serif" font-weight="400" font-size="15" transform="translate(779.961 505)">Sentiment</text><text fill="#FFFFFF" font-family="Calibri,Calibri_MSFontService,sans-serif" font-weight="400" font-size="8" transform="translate(798.381 525)">msdyn</text><text fill="#FFFFFF" font-family="Calibri,Calibri_MSFontService,sans-serif" font-weight="400" font-size="8" transform="translate(820.881 525)">_</text><text fill="#FFFFFF" font-family="Calibri,Calibri_MSFontService,sans-serif" font-weight="400" font-size="8" transform="translate(770.961 543)">conversationParticipant</text><text fill="#FFFFFF" font-family="Calibri,Calibri_MSFontService,sans-serif" font-weight="400" font-size="8" transform="translate(794.128 553)">Sentiment</text><path d="M905.5 502C905.5 496.201 910.201 491.5 916 491.5L1019 491.5C1024.8 491.5 1029.5 496.201 1029.5 502L1029.5 544C1029.5 549.799 1024.8 554.5 1019 554.5L916 554.5C910.201 554.5 905.5 549.799 905.5 544Z" stroke="#2F528F" stroke-width="1.33333" stroke-miterlimit="8" fill="#4472C4" fill-rule="evenodd"/><text fill="#FFFFFF" font-family="Calibri,Calibri_MSFontService,sans-serif" font-weight="400" font-size="15" transform="translate(928.694 509)">Action items</text><text fill="#FFFFFF" font-family="Calibri,Calibri_MSFontService,sans-serif" font-weight="400" font-size="8" transform="translate(953.774 529)">msdyn</text><text fill="#FFFFFF" font-family="Calibri,Calibri_MSFontService,sans-serif" font-weight="400" font-size="8" transform="translate(976.274 529)">_</text><text fill="#FFFFFF" font-family="Calibri,Calibri_MSFontService,sans-serif" font-weight="400" font-size="8" transform="translate(926.028 547)">conversationActionItem</text><path d="M652.5 590.167C652.5 584.276 657.276 579.5 663.167 579.5L783.833 579.5C789.724 579.5 794.5 584.276 794.5 590.167L794.5 632.833C794.5 638.724 789.724 643.5 783.833 643.5L663.167 643.5C657.276 643.5 652.5 638.724 652.5 632.833Z" stroke="#2F528F" stroke-width="1.33333" stroke-miterlimit="8" fill="#4472C4" fill-rule="evenodd"/><text fill="#FFFFFF" font-family="Calibri,Calibri_MSFontService,sans-serif" font-weight="400" font-size="15" transform="translate(678.032 598)">Summary note</text><text fill="#FFFFFF" font-family="Calibri,Calibri_MSFontService,sans-serif" font-weight="400" font-size="8" transform="translate(709.866 618)">msdyn</text><text fill="#FFFFFF" font-family="Calibri,Calibri_MSFontService,sans-serif" font-weight="400" font-size="8" transform="translate(732.366 618)">_</text><text fill="#FFFFFF" font-family="Calibri,Calibri_MSFontService,sans-serif" font-weight="400" font-size="8" transform="translate(666.199 636)">conversationSummarySuggestion</text><path d="M853.5 590.167C853.5 584.276 858.276 579.5 864.167 579.5L946.833 579.5C952.724 579.5 957.5 584.276 957.5 590.167L957.5 632.833C957.5 638.724 952.724 643.5 946.833 643.5L864.167 643.5C858.276 643.5 853.5 638.724 853.5 632.833Z" stroke="#2F528F" stroke-width="1.33333" stroke-miterlimit="8" fill="#4472C4" fill-rule="evenodd"/><text fill="#FFFFFF" font-family="Calibri,Calibri_MSFontService,sans-serif" font-weight="400" font-size="15" transform="translate(874.224 598)">Questions</text><text fill="#FFFFFF" font-family="Calibri,Calibri_MSFontService,sans-serif" font-weight="400" font-size="8" transform="translate(891.804 618)">msdyn</text><text fill="#FFFFFF" font-family="Calibri,Calibri_MSFontService,sans-serif" font-weight="400" font-size="8" transform="translate(914.304 618)">_</text><text fill="#FFFFFF" font-family="Calibri,Calibri_MSFontService,sans-serif" font-weight="400" font-size="8" transform="translate(867.391 636)">conversationQuestion</text><path d="M0 0 23.3065 0 23.3065 0.000104987 46.6128 0.000104987" stroke="#4472C4" stroke-width="0.666667" stroke-miterlimit="8" fill="none" fill-rule="evenodd" transform="matrix(-1.83697e-16 -1 -1 1.83697e-16 809.5 456.113)"/></g></svg>
